X:1
T:Title
%%score { ( 1 4 ) | ( 2 3 ) }
L:1/8
M:9/8
K:Ab
V:1 treble nm="Grand Piano"
V:4 treble 
V:2 bass 
V:3 bass 
V:1
 z3 z2[Q:1/4=100] [CE] [CE][DF][CE] | [Ec]3- [Ec][DB][CA] BAF | [CE]3- [CE]2 [CE] [CE]FE | d6 c3 | %4
 B3- B2 E [CE][Ec][DB] | [CA]3- [CA]2 [A,CA] [CA]ce | z3 z3 .B3 | E3 c3 B3 | %8
[M:5/8] [CA]-[CA]- [CA]3 |[M:2/4] [CA][EA] [DG][A,CA] |[M:9/8] B3- B2 B Bcd | c3- c2 c cde | %12
 d3- d2 d c2 c | B3- B2 E [CE][Ec][DB] | [CA]3- [CA]2 [A,CA] [CA]ce | z3 z3 .B3 | E3 c3 B3 | %17
[M:5/8] [CA]-[CA]- [CA]3 |] %18
V:2
 z3 z2 [A,,A,] [A,,A,]2 [A,,A,] | [A,,A,]3- [A,,A,]2 [A,,E,] [D,F,D]2 [D,A,D] | z3 z3 .A,3 | %3
 [G,B,E]6 [A,E]3 | [E,G,E]3- [E,G,E]2 [E,G,D] [A,,A,]2 [A,,E,] | z3 z3 .A,3[K:treble] | %6
 [D,A,]3- [D,A,]2 [D,B,] [D,F,]2 [D,A,D] | C3 z3 z3 |[M:5/8] [A,,A,]-[A,,A,]- [A,,A,]3 | %9
[M:2/4] z .E,3 |[M:9/8] [E,G,E]3- [E,G,E]2 [E,G,E] [E,E]-[E,A,E][E,B,E] | z3 z3 .[A,E]3 | %12
 [G,B,E]3- [G,B,E]2 [G,B,E] [A,E]2 [A,E] | [E,G,E]3- [E,G,E]2 [E,G,D] [A,,A,]2 [A,,E,] | %14
 z3 z3 .A,3[K:treble] | [D,A,]3- [D,A,]2 [D,B,] [D,F,]2 [D,A,D] | [E,A,C]3 [E,A,E]3 [E,G,D]3 | %17
[M:5/8] [A,,A,]-[A,,A,]- [A,,A,]3 |] %18
V:3
 x9 | x9 | [A,,A,]3- [A,,A,]2 [A,,A,] z D[A,C] | x9 | x9 | %5
 [A,,E,]3- [A,,E,]2 A,, z[K:treble] E[A,_G] | x9 | [E,A,]3- [E,A,E]3 [E,G,D]3 |[M:5/8] x5 | %9
[M:2/4] [A,,E,]C, B,,A,, |[M:9/8] z3 z3 .G,3 | [A,E]3- [A,E]2 [A,E] z B,[A,CE] | x9 | x9 | %14
 [A,,E,]3- [A,,E,]2 A,, z[K:treble] E[A,_G] | x9 | x9 |[M:5/8] x5 |] %18
V:4
 x9 | x9 | x9 | x9 | x9 | x9 | [Fd]3- [Fd]2 [=EG] F-[FA]F | x9 |[M:5/8] x5 |[M:2/4] x4 | %10
[M:9/8] x9 | x9 | x9 | x9 | x9 | [Fd]3- [Fd]2 [=EG] F-[FA]F | x9 |[M:5/8] x5 |] %18

